static/cards/FrenchDeck/cyberwave/card_spades_05.svg

<svg xmlns="http://www.w3.org/2000/svg" width="822" height="1122" fill="none" viewBox="0 0 822 1122"><rect width="822" height="1122" fill="#1a0033" rx="20"/><g fill="#fff066" clip-path="url(#a)"><path d="M118.084 160.92q-8.32 0-16-1.664t-11.52-4.352q-.768-.512-.896-.896t.256-1.152l1.664-2.816q.384-.768.896-.768.256 0 .896.384 3.84 2.432 10.368 3.968 6.656 1.408 14.336 1.408 12.928 0 20.352-5.888 7.424-5.887 7.424-17.28 0-12.928-6.528-18.304t-19.712-5.376q-12.16 0-20.864 4.224a4.8 4.8 0 0 1-2.176.512q-1.792 0-3.072-1.28-1.153-1.28-1.024-3.328l2.176-33.408q0-2.944 2.944-2.944h48.128q1.536 0 2.176.64.768.511.768 1.92v.896q0 2.816-2.944 2.816h-44.416l-1.792 27.52a45.7 45.7 0 0 1 9.472-2.56q4.992-.896 12.032-.896 14.592 0 23.04 7.296t8.448 22.272q0 13.696-9.472 21.376t-24.96 7.68M121.202 281.503c10.18 10.18 26.685 10.18 36.865 0s10.18-26.685 0-36.865l-33.179-33.179a5.213 5.213 0 0 0-7.373 0l-33.179 33.179.004.003c-9.814 10.207-9.692 26.436.365 36.493s26.287 10.179 36.493.365z"/><rect width="5" height="33" x="118.5" y="266" rx="2.5"/><path d="M695.916 957.08q8.32 0 16 1.664t11.52 4.352q.768.512.896.896t-.256 1.152l-1.664 2.816q-.384.768-.896.768-.256 0-.896-.384-3.84-2.432-10.368-3.968-6.656-1.408-14.336-1.408-12.929 0-20.352 5.888-7.424 5.887-7.424 17.28c0 8.619 2.176 14.724 6.528 18.304s10.923 5.38 19.712 5.38q12.16 0 20.864-4.23a4.8 4.8 0 0 1 2.176-.51c1.195 0 2.219.43 3.072 1.28q1.152 1.275 1.024 3.33l-2.176 33.41q0 2.94-2.944 2.94h-48.128c-1.024 0-1.749-.21-2.176-.64q-.768-.51-.768-1.92v-.9c0-1.87.981-2.81 2.944-2.81h44.416l1.792-27.52a46 46 0 0 1-9.472 2.56c-3.328.6-7.339.89-12.032.89q-14.592 0-23.04-7.29c-5.632-4.87-8.448-12.29-8.448-22.274q0-13.696 9.472-21.376t24.96-7.68M692.798 836.497c-10.18-10.18-26.685-10.18-36.865 0s-10.18 26.685 0 36.865l33.179 33.179a5.213 5.213 0 0 0 7.373 0l33.179-33.179-.004-.003c9.814-10.207 9.692-26.436-.365-36.493s-26.287-10.179-36.493-.365z"/><rect width="5" height="33" x="695.5" y="852" rx="2.5" transform="rotate(-180 695.5 852)"/></g><path stroke="#fff066" stroke-width="8" d="M525.739 658.674c-8.618 8.618-22.59 8.619-31.209.001l-2.777-2.777-2.827 2.718c-8.639 8.306-22.379 8.203-30.892-.31-8.514-8.514-8.617-22.254-.31-30.893l.137-.143 32.983-32.982a1.213 1.213 0 0 1 1.716-.001l33.179 33.179c8.618 8.618 8.618 22.59 0 31.208Z"/><rect width="5" height="33" x="489" y="646" fill="#fff066" rx="2.5"/><path stroke="#fff066" stroke-width="8" d="M357.739 658.674c-8.618 8.618-22.59 8.619-31.209.001l-2.777-2.777-2.827 2.718c-8.639 8.306-22.379 8.203-30.892-.31-8.514-8.514-8.617-22.254-.31-30.893l.137-.143 32.983-32.982a1.213 1.213 0 0 1 1.716-.001l33.179 33.179c8.618 8.618 8.618 22.59 0 31.208Z"/><rect width="5" height="33" x="321" y="646" fill="#fff066" rx="2.5"/><path stroke="#fff066" stroke-width="8" d="M613.739 496.674c-8.618 8.618-22.59 8.619-31.209.001l-2.777-2.777-2.827 2.718c-8.639 8.306-22.379 8.203-30.892-.31-8.514-8.514-8.617-22.254-.31-30.893l.137-.143 32.983-32.982a1.213 1.213 0 0 1 1.716-.001l33.179 33.179c8.618 8.618 8.618 22.59 0 31.208Z"/><rect width="5" height="33" x="577" y="484" fill="#fff066" rx="2.5"/><path stroke="#fff066" stroke-width="8" d="M277.739 496.674c-8.618 8.618-22.59 8.619-31.209.001l-2.777-2.777-2.827 2.718c-8.639 8.306-22.379 8.203-30.892-.31-8.514-8.514-8.617-22.254-.31-30.893l.137-.143 32.983-32.982a1.213 1.213 0 0 1 1.716-.001l33.179 33.179c8.618 8.618 8.618 22.59 0 31.208Z"/><rect width="5" height="33" x="241" y="484" fill="#fff066" rx="2.5"/><path stroke="#fff066" stroke-width="8" d="M445.739 496.674c-8.618 8.618-22.59 8.619-31.209.001l-2.777-2.777-2.827 2.718c-8.639 8.306-22.379 8.203-30.892-.31-8.514-8.514-8.617-22.254-.31-30.893l.137-.143 32.983-32.982a1.213 1.213 0 0 1 1.716-.001l33.179 33.179c8.618 8.618 8.618 22.59 0 31.208Z"/><rect width="5" height="33" x="409" y="484" fill="#fff066" rx="2.5"/><defs><clipPath id="a"><path fill="#fff" d="M46 48h722v1022H46z"/></clipPath></defs></svg>

<svg width="822" height="1122" viewBox="0 0 822 1122" fill="none" xmlns="http://www.w3.org/2000/svg">
<rect width="822" height="1122" rx="20" fill="#1A0033"/>
<g clip-path="url(#clip0_31_1237)">
<path d="M118.084 160.92C112.537 160.92 107.204 160.365 102.084 159.256C96.964 158.147 93.124 156.696 90.564 154.904C90.052 154.563 89.7533 154.264 89.668 154.008C89.5827 153.752 89.668 153.368 89.924 152.856L91.588 150.04C91.844 149.528 92.1427 149.272 92.484 149.272C92.6547 149.272 92.9533 149.4 93.38 149.656C95.94 151.277 99.396 152.6 103.748 153.624C108.185 154.563 112.964 155.032 118.084 155.032C126.703 155.032 133.487 153.069 138.436 149.144C143.385 145.219 145.86 139.459 145.86 131.864C145.86 123.245 143.684 117.144 139.332 113.56C134.98 109.976 128.409 108.184 119.62 108.184C111.513 108.184 104.559 109.592 98.756 112.408C98.0733 112.749 97.348 112.92 96.58 112.92C95.3853 112.92 94.3613 112.493 93.508 111.64C92.74 110.787 92.3987 109.677 92.484 108.312L94.66 74.904C94.66 72.9413 95.6413 71.96 97.604 71.96H145.732C146.756 71.96 147.481 72.1733 147.908 72.6C148.42 72.9413 148.676 73.5813 148.676 74.52V75.416C148.676 77.2933 147.695 78.232 145.732 78.232H101.316L99.524 105.752C102.596 104.557 105.753 103.704 108.996 103.192C112.324 102.595 116.335 102.296 121.028 102.296C130.756 102.296 138.436 104.728 144.068 109.592C149.7 114.456 152.516 121.88 152.516 131.864C152.516 140.995 149.359 148.12 143.044 153.24C136.729 158.36 128.409 160.92 118.084 160.92Z" fill="#FFF066"/>
<path d="M121.202 281.503C131.382 291.683 147.887 291.683 158.067 281.503C168.247 271.323 168.247 254.818 158.067 244.638L124.888 211.459C122.852 209.423 119.551 209.423 117.515 211.459L84.3364 244.638L84.34 244.641C74.5265 254.848 74.6481 271.077 84.7051 281.134C94.762 291.191 110.992 291.313 121.198 281.499L121.202 281.503Z" fill="#FFF066"/>
<rect x="118.5" y="266" width="5" height="33" rx="2.5" fill="#FFF066"/>
<path d="M695.916 957.08C701.463 957.08 706.796 957.635 711.916 958.744C717.036 959.853 720.876 961.304 723.436 963.096C723.948 963.437 724.247 963.736 724.332 963.992C724.417 964.248 724.332 964.632 724.076 965.144L722.412 967.96C722.156 968.472 721.857 968.728 721.516 968.728C721.345 968.728 721.047 968.6 720.62 968.344C718.06 966.723 714.604 965.4 710.252 964.376C705.815 963.437 701.036 962.968 695.916 962.968C687.297 962.968 680.513 964.931 675.564 968.856C670.615 972.781 668.14 978.541 668.14 986.136C668.14 994.755 670.316 1000.86 674.668 1004.44C679.02 1008.02 685.591 1009.82 694.38 1009.82C702.487 1009.82 709.441 1008.41 715.244 1005.59C715.927 1005.25 716.652 1005.08 717.42 1005.08C718.615 1005.08 719.639 1005.51 720.492 1006.36C721.26 1007.21 721.601 1008.32 721.516 1009.69L719.34 1043.1C719.34 1045.06 718.359 1046.04 716.396 1046.04H668.268C667.244 1046.04 666.519 1045.83 666.092 1045.4C665.58 1045.06 665.324 1044.42 665.324 1043.48V1042.58C665.324 1040.71 666.305 1039.77 668.268 1039.77H712.684L714.476 1012.25C711.404 1013.44 708.247 1014.3 705.004 1014.81C701.676 1015.41 697.665 1015.7 692.972 1015.7C683.244 1015.7 675.564 1013.27 669.932 1008.41C664.3 1003.54 661.484 996.12 661.484 986.136C661.484 977.005 664.641 969.88 670.956 964.76C677.271 959.64 685.591 957.08 695.916 957.08Z" fill="#FFF066"/>
<path d="M692.798 836.497C682.618 826.317 666.113 826.317 655.933 836.497C645.753 846.677 645.753 863.182 655.933 873.362L689.112 906.541C691.148 908.577 694.449 908.577 696.485 906.541L729.664 873.362L729.66 873.359C739.474 863.152 739.352 846.923 729.295 836.866C719.238 826.809 703.008 826.687 692.802 836.501L692.798 836.497Z" fill="#FFF066"/>
<rect x="695.5" y="852" width="5" height="33" rx="2.5" transform="rotate(-180 695.5 852)" fill="#FFF066"/>
</g>
<path d="M525.739 658.674C517.121 667.292 503.149 667.293 494.53 658.675L491.753 655.898L488.926 658.616C480.287 666.922 466.547 666.819 458.034 658.306C449.52 649.792 449.417 636.052 457.724 627.413L457.861 627.27L490.844 594.288C491.318 593.814 492.086 593.813 492.56 594.287L525.739 627.466C534.357 636.084 534.357 650.056 525.739 658.674Z" stroke="#FFF066" stroke-width="8"/>
<rect x="489" y="646" width="5" height="33" rx="2.5" fill="#FFF066"/>
<path d="M357.739 658.674C349.121 667.292 335.149 667.293 326.53 658.675L323.753 655.898L320.926 658.616C312.287 666.922 298.547 666.819 290.034 658.306C281.52 649.792 281.417 636.052 289.724 627.413L289.861 627.27L322.844 594.288C323.318 593.814 324.086 593.813 324.56 594.287L357.739 627.466C366.357 636.084 366.357 650.056 357.739 658.674Z" stroke="#FFF066" stroke-width="8"/>
<rect x="321" y="646" width="5" height="33" rx="2.5" fill="#FFF066"/>
<path d="M613.739 496.674C605.121 505.292 591.149 505.293 582.53 496.675L579.753 493.898L576.926 496.616C568.287 504.922 554.547 504.819 546.034 496.306C537.52 487.792 537.417 474.052 545.724 465.413L545.861 465.27L578.844 432.288C579.318 431.814 580.086 431.813 580.56 432.287L613.739 465.466C622.357 474.084 622.357 488.056 613.739 496.674Z" stroke="#FFF066" stroke-width="8"/>
<rect x="577" y="484" width="5" height="33" rx="2.5" fill="#FFF066"/>
<path d="M277.739 496.674C269.121 505.292 255.149 505.293 246.53 496.675L243.753 493.898L240.926 496.616C232.287 504.922 218.547 504.819 210.034 496.306C201.52 487.792 201.417 474.052 209.724 465.413L209.861 465.27L242.844 432.288C243.318 431.814 244.086 431.813 244.56 432.287L277.739 465.466C286.357 474.084 286.357 488.056 277.739 496.674Z" stroke="#FFF066" stroke-width="8"/>
<rect x="241" y="484" width="5" height="33" rx="2.5" fill="#FFF066"/>
<path d="M445.739 496.674C437.121 505.292 423.149 505.293 414.53 496.675L411.753 493.898L408.926 496.616C400.287 504.922 386.547 504.819 378.034 496.306C369.52 487.792 369.417 474.052 377.724 465.413L377.861 465.27L410.844 432.288C411.318 431.814 412.086 431.813 412.56 432.287L445.739 465.466C454.357 474.084 454.357 488.056 445.739 496.674Z" stroke="#FFF066" stroke-width="8"/>
<rect x="409" y="484" width="5" height="33" rx="2.5" fill="#FFF066"/>
<defs>
<clipPath id="clip0_31_1237">
<rect width="722" height="1022" fill="white" transform="translate(46 48)"/>
</clipPath>
</defs>
</svg>
